X: 36
T: Gigg by Mr Arne
%R: jig
B: Stewart "A Select Collection of Airs, Jigs, Marches and Reels", ca.1784, p.17 #36
F: http://imslp.org/wiki/A_Select_Collection_of_Airs,_Jigs,_Marches_and_Reels_%28Various%29
Z: 2017 John Chambers <jc:trillian.mit.edu>
M: 6/8
L: 1/8
K: D
|:\
d2d dfd | ecA (c/d/e).c |\
d2d- dfd | ecA d2 ::\
aad (b2g) | (a2f) (g2e) |\
ffd gge | adc d3 :|

%%sep 1 1 500
%%sep 1 1 500

